src/assets/outline/Ui8.svg

<svg width="24" height="24" viewBox="0 0 24 24"  xmlns="http://www.w3.org/2000/svg">
<path d="M10.4998 22.5397C10.0998 22.5397 9.70977 22.4497 9.33977 22.2797L2.83977 19.2197C1.87977 18.7697 1.25977 17.7897 1.25977 16.7297V9.26969C1.25977 8.20969 1.87977 7.2297 2.83977 6.7797L9.33977 3.7197C10.0798 3.3697 10.9298 3.3797 11.6698 3.7197L14.3398 4.97971C14.6498 5.12971 14.8198 5.45971 14.7598 5.78971C14.7498 5.85971 14.7498 5.9297 14.7498 5.9997C14.7498 7.7897 16.2098 9.2497 17.9998 9.2497C18.2898 9.2497 18.5498 9.21969 18.7998 9.14969C19.0198 9.07969 19.2698 9.12969 19.4598 9.26969C19.6498 9.40969 19.7598 9.6297 19.7598 9.8697V16.7297C19.7598 17.7897 19.1398 18.7697 18.1798 19.2197L11.6798 22.2797C11.2998 22.4497 10.8998 22.5397 10.4998 22.5397ZM10.4998 4.95969C10.3198 4.95969 10.1298 4.99969 9.95978 5.07969L3.45978 8.13971C3.01978 8.34971 2.73978 8.77969 2.73978 9.26969V16.7297C2.73978 17.2197 3.01978 17.6497 3.45978 17.8597L9.95978 20.9197C10.2998 21.0697 10.6898 21.0797 11.0298 20.9197L17.5298 17.8597C17.9698 17.6497 18.2498 17.2197 18.2498 16.7297V10.7397C18.1698 10.7397 18.0798 10.7497 17.9998 10.7497C15.4198 10.7497 13.3198 8.6897 13.2498 6.1297L11.0298 5.07969C10.8598 4.99969 10.6798 4.95969 10.4998 4.95969Z" />
<path d="M9 16.25C7.48 16.25 6.25 15.02 6.25 13.5V10.5C6.25 10.09 6.59 9.75 7 9.75C7.41 9.75 7.75 10.09 7.75 10.5V13.5C7.75 14.19 8.31 14.75 9 14.75C9.69 14.75 10.25 14.19 10.25 13.5V10.5C10.25 10.09 10.59 9.75 11 9.75C11.41 9.75 11.75 10.09 11.75 10.5V13.5C11.75 15.02 10.52 16.25 9 16.25Z" />
<path d="M14 16.19C13.59 16.19 13.25 15.85 13.25 15.44V10.5C13.25 10.09 13.59 9.75 14 9.75C14.41 9.75 14.75 10.09 14.75 10.5V15.44C14.75 15.86 14.41 16.19 14 16.19Z" />
<path d="M18 10.75C15.38 10.75 13.25 8.62 13.25 6C13.25 5.85 13.25 5.68 13.28 5.53C13.48 3.12 15.51 1.25 18 1.25C20.62 1.25 22.75 3.38 22.75 6C22.75 8.17 21.28 10.06 19.19 10.6C18.82 10.7 18.43 10.75 18 10.75ZM18 2.75C16.3 2.75 14.91 4.03 14.77 5.72C14.75 5.86 14.75 5.93 14.75 6C14.75 7.79 16.21 9.25 18 9.25C18.29 9.25 18.55 9.21999 18.8 9.14999C20.25 8.77999 21.25 7.49 21.25 6C21.25 4.21 19.79 2.75 18 2.75Z" />
<path d="M19.0901 5.9108C19.3301 5.7008 19.4602 5.42078 19.4602 5.08078C19.4602 4.31078 18.8802 3.80078 18.0002 3.80078C17.1202 3.80078 16.5401 4.32078 16.5401 5.08078C16.5401 5.41078 16.6702 5.7008 16.9102 5.9108C16.5902 6.1508 16.4102 6.50081 16.4102 6.89081C16.4102 7.70081 17.0201 8.20081 18.0101 8.20081C19.0001 8.20081 19.6102 7.70081 19.6102 6.89081C19.6002 6.49081 19.4201 6.1408 19.0901 5.9108ZM18.0002 5.5108C17.7302 5.5108 17.5602 5.3608 17.5602 5.1308C17.5602 4.8508 17.7902 4.7608 18.0002 4.7608C18.2102 4.7608 18.4402 4.8608 18.4402 5.1308C18.4402 5.3608 18.2702 5.5108 18.0002 5.5108ZM18.0002 6.34079C18.2802 6.34079 18.5802 6.4608 18.5802 6.7908C18.5802 7.0808 18.3602 7.25079 18.0002 7.25079C17.6402 7.25079 17.4202 7.0808 17.4202 6.7908C17.4202 6.3808 17.8602 6.34079 18.0002 6.34079Z" />
</svg>

<?xml version="1.0" encoding="UTF-8"?>
<svg width="24" height="24" viewBox="0 0 24 24" xmlns="http://www.w3.org/2000/svg">
 <path d="m10.5 22.54c-0.4 0-0.79003-0.09-1.16-0.26l-6.5-3.06c-0.96-0.45-1.58-1.43-1.58-2.49v-7.46c0-1.06 0.62-2.04 1.58-2.49l6.5-3.06c0.74003-0.35 1.59-0.34 2.33 0l2.67 1.26c0.31 0.15 0.48 0.48 0.42 0.81-0.01 0.07-0.01 0.13999-0.01 0.20999 0 1.79 1.46 3.25 3.25 3.25 0.29 0 0.55-0.03001 0.8-0.10001 0.22-0.07 0.47-0.02 0.66 0.12s0.3 0.36001 0.3 0.60001v6.86c0 1.06-0.62 2.04-1.58 2.49l-6.5 3.06c-0.38 0.17-0.78 0.26-1.18 0.26zm0-17.58c-0.18 0-0.37 0.04-0.54002 0.12l-6.5 3.06c-0.44 0.21-0.72 0.63998-0.72 1.13v7.46c0 0.49 0.28 0.92 0.72 1.13l6.5 3.06c0.34002 0.15 0.73002 0.16 1.07 0l6.5-3.06c0.44-0.21 0.72-0.64 0.72-1.13v-5.99c-0.08 0-0.17 0.01-0.25 0.01-2.58 0-4.68-2.06-4.75-4.62l-2.22-1.05c-0.17-0.08-0.35-0.12-0.53-0.12z"/>
 <path d="m9 16.25c-1.52 0-2.75-1.23-2.75-2.75v-3c0-0.41 0.34-0.75 0.75-0.75s0.75 0.34 0.75 0.75v3c0 0.69 0.56 1.25 1.25 1.25s1.25-0.56 1.25-1.25v-3c0-0.41 0.34-0.75 0.75-0.75s0.75 0.34 0.75 0.75v3c0 1.52-1.23 2.75-2.75 2.75z"/>
 <path d="m14 16.19c-0.41 0-0.75-0.34-0.75-0.75v-4.94c0-0.41 0.34-0.75 0.75-0.75s0.75 0.34 0.75 0.75v4.94c0 0.42-0.34 0.75-0.75 0.75z"/>
 <path d="m18 10.75c-2.62 0-4.75-2.13-4.75-4.75 0-0.15 0-0.32 0.03-0.47 0.2-2.41 2.23-4.28 4.72-4.28 2.62 0 4.75 2.13 4.75 4.75 0 2.17-1.47 4.06-3.56 4.6-0.37 0.1-0.76 0.15-1.19 0.15zm0-8c-1.7 0-3.09 1.28-3.23 2.97-0.02 0.14-0.02 0.21-0.02 0.28 0 1.79 1.46 3.25 3.25 3.25 0.29 0 0.55-0.03001 0.8-0.10001 1.45-0.37 2.45-1.66 2.45-3.15 0-1.79-1.46-3.25-3.25-3.25z"/>
 <path d="m19.09 5.9108c0.24-0.21 0.3701-0.49002 0.3701-0.83002 0-0.77-0.58-1.28-1.46-1.28s-1.4601 0.52-1.4601 1.28c0 0.33 0.1301 0.62002 0.3701 0.83002-0.32 0.24-0.5 0.59001-0.5 0.98001 0 0.81 0.6099 1.31 1.5999 1.31s1.6001-0.5 1.6001-1.31c-0.01-0.4-0.1901-0.75001-0.5201-0.98001zm-1.0899-0.4c-0.27 0-0.44-0.15-0.44-0.38 0-0.28 0.23-0.37 0.44-0.37s0.44 0.1 0.44 0.37c0 0.23-0.17 0.38-0.44 0.38zm0 0.82999c0.28 0 0.58 0.12001 0.58 0.45001 0 0.29-0.22 0.45999-0.58 0.45999s-0.58-0.16999-0.58-0.45999c0-0.41 0.44-0.45001 0.58-0.45001z"/>
</svg>
